src/icons/settings.svg

<?xml version="1.0" encoding="UTF-8" standalone="no"?>
<svg
   xmlns:dc="http://purl.org/dc/elements/1.1/"
   xmlns:cc="http://creativecommons.org/ns#"
   xmlns:rdf="http://www.w3.org/1999/02/22-rdf-syntax-ns#"
   xmlns:svg="http://www.w3.org/2000/svg"
   xmlns="http://www.w3.org/2000/svg"
   width="1000mm"
   height="1000mm"
   viewBox="0 0 1000 1000"
   version="1.1"
   id="svg8">
  <defs
     id="defs2" />
  <metadata
     id="metadata5">
    <rdf:RDF>
      <cc:Work
         rdf:about="">
        <dc:format>image/svg+xml</dc:format>
        <dc:type
           rdf:resource="http://purl.org/dc/dcmitype/StillImage" />
        <dc:title></dc:title>
      </cc:Work>
    </rdf:RDF>
  </metadata>
  <g
     style="stroke-opacity:1"
     id="layer1"
     transform="matrix(1.4163021,0,0,1.4163021,-208.151,787.50937)">
    <path
       style="fill:none;fill-opacity:1;stroke-width:100;stroke-miterlimit:4;stroke-dasharray:none;stroke-opacity:1"
       d="m 1889.7637,649.76367 a 1297.1428,1240 0 0 0 -202.1817,15.91992 l -52.1758,286.40235 a 1007.4848,969.74571 0 0 0 -117.7285,36.85937 l -222.08,-201.10547 a 1297.1428,1240 0 0 0 -200.9942,122.97071 l 99.6074,277.91605 a 1007.4848,969.74571 0 0 0 -95.8984,102.7519 l -302.55273,-65.3457 a 1297.1428,1240 0 0 0 -106.10743,194.7988 l 233.50196,197.7911 a 1007.4848,969.74571 0 0 0 -32.43555,152.5351 l -296.875,95.1406 a 1297.1428,1240 0 0 0 -1.22266,23.3653 1297.1428,1240 0 0 0 16.48243,191.9375 l 307.16601,55.789 a 1007.4848,969.74571 0 0 0 53.13867,143.8028 l -203.67773,224.2422 a 1297.1428,1240 0 0 0 132.7832,182.0507 l 289.45113,-103.4297 a 1007.4848,969.74571 0 0 0 104.8653,85.4376 l -62.0879,286.6054 a 1297.1428,1240 0 0 0 218.1582,98.1055 l 192.082,-226.0762 a 1007.4848,969.74571 0 0 0 118.2031,22.0723 l 89.1954,277.4824 a 1297.1428,1240 0 0 0 41.3828,1.9805 1297.1428,1240 0 0 0 202.1816,-15.9199 l 52.1758,-286.4024 a 1007.4848,969.74571 0 0 0 117.7305,-36.8594 l 222.0781,201.1055 a 1297.1428,1240 0 0 0 200.9941,-122.9707 l -99.6074,-277.916 a 1007.4848,969.74571 0 0 0 95.8984,-102.752 l 302.5528,65.3457 a 1297.1428,1240 0 0 0 106.1074,-194.7988 l -233.502,-197.791 a 1007.4848,969.74571 0 0 0 32.4356,-152.5352 l 296.875,-95.1386 a 1297.1428,1240 0 0 0 1.2226,-23.3672 1297.1428,1240 0 0 0 -16.4824,-191.9375 l -307.166,-55.7891 a 1007.4848,969.74571 0 0 0 -53.1387,-143.8027 l 203.6778,-224.2422 a 1297.1428,1240 0 0 0 -132.7813,-182.0508 l -289.4531,103.4297 a 1007.4848,969.74571 0 0 0 -104.8652,-85.4375 l 62.0879,-286.60548 A 1297.1428,1240 0 0 0 2330.627,725.22266 l -192.0821,226.07617 a 1007.4848,969.74571 0 0 0 -118.2051,-22.07227 l -89.1933,-277.48242 a 1297.1428,1240 0 0 0 -41.3828,-1.98047 z"
       transform="matrix(0.26458333,0,0,0.26458333,0,-703)"
       id="path843" />
    <ellipse
       style="fill:none;fill-opacity:1;stroke-width:35;stroke-miterlimit:4;stroke-dasharray:none;stroke-opacity:1"
       id="path861"
       cx="500"
       cy="-203"
       rx="185.61949"
       ry="185.61948" />
  </g>
</svg>

<?xml version="1.0" encoding="UTF-8" standalone="no"?>
<svg
   xmlns:dc="http://purl.org/dc/elements/1.1/"
   xmlns:cc="http://creativecommons.org/ns#"
   xmlns:rdf="http://www.w3.org/1999/02/22-rdf-syntax-ns#"
   xmlns:svg="http://www.w3.org/2000/svg"
   xmlns="http://www.w3.org/2000/svg"
   id="svg8"
   version="1.1"
   viewBox="0 0 1000 1000"
   height="1000mm"
   width="1000mm">
  <defs
     id="defs2" />
  <metadata
     id="metadata5">
    <rdf:RDF>
      <cc:Work
         rdf:about="">
        <dc:format>image/svg+xml</dc:format>
        <dc:type
           rdf:resource="http://purl.org/dc/dcmitype/StillImage" />
        <dc:title></dc:title>
      </cc:Work>
    </rdf:RDF>
  </metadata>
  <g
     transform="translate(0,703)"
     id="layer1">
    <path
       id="path843"
       transform="matrix(0.26458333,0,0,0.26458333,0,-703)"
       d="M 1889.7637 649.76367 A 1297.1428 1240 0 0 0 1687.582 665.68359 L 1635.4062 952.08594 A 1007.4848 969.74571 0 0 0 1517.6777 988.94531 L 1295.5977 787.83984 A 1297.1428 1240 0 0 0 1094.6035 910.81055 L 1194.2109 1188.7266 A 1007.4848 969.74571 0 0 0 1098.3125 1291.4785 L 795.75977 1226.1328 A 1297.1428 1240 0 0 0 689.65234 1420.9316 L 923.1543 1618.7227 A 1007.4848 969.74571 0 0 0 890.71875 1771.2578 L 593.84375 1866.3984 A 1297.1428 1240 0 0 0 592.62109 1889.7637 A 1297.1428 1240 0 0 0 609.10352 2081.7012 L 916.26953 2137.4902 A 1007.4848 969.74571 0 0 0 969.4082 2281.293 L 765.73047 2505.5352 A 1297.1428 1240 0 0 0 898.51367 2687.5859 L 1187.9648 2584.1562 A 1007.4848 969.74571 0 0 0 1292.8301 2669.5938 L 1230.7422 2956.1992 A 1297.1428 1240 0 0 0 1448.9004 3054.3047 L 1640.9824 2828.2285 A 1007.4848 969.74571 0 0 0 1759.1855 2850.3008 L 1848.3809 3127.7832 A 1297.1428 1240 0 0 0 1889.7637 3129.7637 A 1297.1428 1240 0 0 0 2091.9453 3113.8438 L 2144.1211 2827.4414 A 1007.4848 969.74571 0 0 0 2261.8516 2790.582 L 2483.9297 2991.6875 A 1297.1428 1240 0 0 0 2684.9238 2868.7168 L 2585.3164 2590.8008 A 1007.4848 969.74571 0 0 0 2681.2148 2488.0488 L 2983.7676 2553.3945 A 1297.1428 1240 0 0 0 3089.875 2358.5957 L 2856.373 2160.8047 A 1007.4848 969.74571 0 0 0 2888.8086 2008.2695 L 3185.6836 1913.1309 A 1297.1428 1240 0 0 0 3186.9062 1889.7637 A 1297.1428 1240 0 0 0 3170.4238 1697.8262 L 2863.2578 1642.0371 A 1007.4848 969.74571 0 0 0 2810.1191 1498.2344 L 3013.7969 1273.9922 A 1297.1428 1240 0 0 0 2881.0156 1091.9414 L 2591.5625 1195.3711 A 1007.4848 969.74571 0 0 0 2486.6973 1109.9336 L 2548.7852 823.32812 A 1297.1428 1240 0 0 0 2330.627 725.22266 L 2138.5449 951.29883 A 1007.4848 969.74571 0 0 0 2020.3398 929.22656 L 1931.1465 651.74414 A 1297.1428 1240 0 0 0 1889.7637 649.76367 z "
       style="fill:none;fill-opacity:1;stroke:#000000;stroke-width:37.79527607;stroke-miterlimit:4;stroke-dasharray:none;stroke-opacity:1" />
    <ellipse
       ry="185.61948"
       rx="185.61949"
       cy="-203"
       cx="500"
       id="path861"
       style="fill:none;fill-opacity:1;stroke:#000000;stroke-width:10;stroke-miterlimit:4;stroke-dasharray:none;stroke-opacity:1" />
  </g>
</svg>
